X:1
T:Title
%%score { ( 1 4 ) | ( 2 3 ) }
L:1/8
M:4/4
K:G
V:1 treble nm="Grand Piano"
V:4 treble 
V:2 bass 
V:3 bass 
V:1
 z4 z2[Q:1/4=106] D>D | G2 G2 G2 B2 | .[CEA]2 [DF][CE] [B,D]2 [B,D]>[B,D] |[M:2/4] [B,G]2 [DG]>A | %4
 B2 d2 |[M:3/4] [GB]4 [FA]2 |[M:1/4] D2 |[M:4/4] G2 G2 G2 B2 |[M:3/4] .[CEA]2 [DF][CE] [B,D]2 | %9
[M:1/4] [B,D]>[B,D] |[M:4/4] [B,G]2 [DG]>A B2 G2 |[M:3/4] [FA]4 G2 |[M:1/4] G>B |[M:3/4] d6 | %14
[M:1/4] B>G |[M:4/4] e6 z2 | d2 d>e d2 B2 |[M:3/4] [GB]4 [FA]2 |[M:1/4] D2 |[M:4/4] G2 G2 G2 B2 | %20
[M:3/4] .[CEA]2 [DF][CE] [B,D]2 |[M:1/4] [B,D]>[B,D] |[M:4/4] [B,G]2 [DG]>A B2 G2 | %23
[M:7/4] [FA]4 G2 z2 z2 z4 |] %24
V:2
 z4 z2 [G,B,]>[G,B,] | [G,B,D]2 [G,B,D]2 [G,B,D]2 [G,DG]2 | z G [C,G,]2 [G,,G,]2 [G,,G,]>[G,,G,] | %3
[M:2/4] [G,,G,]2 [B,,G,]>[D,F,D] | [G,D]2 [G,B,D]2 |[M:3/4] [D,D]4 [D,D]2 |[M:1/4] [D,C]2 | %7
[M:4/4][K:treble] [G,B,D]2 [G,B,D]2 [G,B,D]2 [G,DG]2 |[M:3/4][K:bass] z G [C,G,]2 [G,,G,]2 | %9
[M:1/4] [G,,G,]>[G,,G,] |[M:4/4] [G,,G,]2 [B,,G,]>[D,F,D] [G,D]2 [G,B,D]2 |[M:3/4] [D,C]4 [G,B,]2 | %12
[M:1/4] z2 |[M:3/4] z2 [G,B,]>[G,B,] [G,B,]2 |[M:1/4] z2 | %15
[M:4/4] z2 [C,C]>[C,C] [C,C]2 [C,G,]>[C,C] | [G,B,G]2 [G,B,G]>[G,CG] [G,B,G]2 [G,DG]2 | %17
[M:3/4][K:bass] [D,D]4 [D,D]2 |[M:1/4] [D,C]2 | %19
[M:4/4] [G,B,D]2 [G,B,D]2[K:treble] [G,B,D]2 [G,DG]2 |[M:3/4][K:bass] z G [C,G,]2 [G,,G,]2 | %21
[M:1/4] [G,,G,]>[G,,G,] |[M:4/4] [G,,G,]2 [B,,G,]>[D,F,D] [G,D]2 [G,B,D]2 | %23
[M:7/4] [D,C]4 [G,B,]2 z2 z2 z4 |] %24
V:3
 x8 | x8 | C,2 z2 z4 |[M:2/4] x4 | x4 |[M:3/4] x6 |[M:1/4] x2 |[M:4/4][K:treble] x8 | %8
[M:3/4][K:bass] C,2 z2 z2 |[M:1/4] x2 |[M:4/4] x8 |[M:3/4] x6 |[M:1/4] x2 |[M:3/4] x6 |[M:1/4] x2 | %15
[M:4/4] x8 | x8 |[M:3/4][K:bass] x6 |[M:1/4] x2 |[M:4/4] x4[K:treble] x4 | %20
[M:3/4][K:bass] C,2 z2 z2 |[M:1/4] x2 |[M:4/4] x8 |[M:7/4] x14 |] %24
V:4
 x8 | x8 | x8 |[M:2/4] x4 | x4 |[M:3/4] x6 |[M:1/4] x2 |[M:4/4] x8 |[M:3/4] x6 |[M:1/4] x2 | %10
[M:4/4] x8 |[M:3/4] x6 |[M:1/4] x2 |[M:3/4] z2 G>G G2 |[M:1/4] x2 |[M:4/4] z2 G>G G2 [Ec]>[Ge] | %16
 x8 |[M:3/4] x6 |[M:1/4] x2 |[M:4/4] x8 |[M:3/4] x6 |[M:1/4] x2 |[M:4/4] x8 |[M:7/4] x14 |] %24

